X:9730
T:Lo codretto
C:MCTB 2/38
M:3/8
L:1/8
K:C
Gcd|e2e|f/e/dc|ed2|\
Gcd|e2e|f/e/dc|1 d3:|2 d2||
|:G|c2d|c/B/AG|A2B|AGG|\
c2d|c/B/AG|ABG|1 c2:|2 c3||
%%newpage
